!!!OTL: 382. Maikraenze.
!!!ODT: 1539
!!!ARE: Europa, Mitteleuropa, Deutschland
!!!SCT: E0382
!!!TXL: @@DE
!!!YEM: Copyright 1995, estate of Helmut Schaffrath.
**kern	**text
*ICvox	*
*M4/4	*
*met(c)	*
*k[b-]	*
*F:	*
!LO:TX:a:t=Mel. 1539.	!
{4f	Der
=1	=1
4f	Mai
4g	will
4a	ſich
4b-	mit
=2	=2
2cc	Gun-
4a}	-ſten,
{4a	mit
=3	=3
2dd	Gun-
4cc	-ſten
4b-	be-
=4	=4
2cc	-wei-
4a}	-ſen,
{4a	prüf
=5	=5
4dd	ich
4dd	an
4cc	al-
4a	-ler
=6	=6
8ccL	Vög-
8b-J	.
8aL	-lein
8gJ	.
4f	Gſang,
4r	.
=7	=7
4r}	.
{4f	bringt
4f	uns
4a	der
=8	=8
4g	Sommer
4f	.
4e	man-
4e	-nig-
=9	=9
2d	-falt.
4r}	.
{4e	Jch
=10	=10
4.f	hör
8f	Frau
4f	Nachti-
4e	-gall
=11	=11
2d	ſin-
2c	-gen.
=12	=12
4r}	.
{4f	Sie
4f	ſingt
4f	recht
=13	=13
4f	wie
4e	ein
4.f	Sai-
8e	-ten-
=14	=14
4d}	-ſpiel
{4c	der
4f	Mai
4g	uns
=15	=15
2a	will
4r}	.
{4f	den
=16	=16
4.f	lich-
8e	-ten
4d	Som-
4c	-mer
=17	=17
2g	brin-
4g	-gen,
4g	ja
=18	=18
2g	brin-
4f}	-gen.
==	==
!!!AGN: Liebes - Lied, Jahreszeiten, Fruehling
!!!ONB: ESAC (Essen Associative Code) Database: ERK1
!!!AMT: simple quadruple
!!!AIN: vox
!!!EED: Helmut Schaffrath
!!!EEV: 1.0
!!!GTL: Liebeslieder [Alte (aus dem 13. bis 17. Jahrh.) mit ihrem jungen Nachwuchs]
!!!URL-scan: https://rosdok.uni-rostock.de/mcrviewer/recordIdentifier/rosdok_ppn745177662/iview2/phys_0198.iview2?x=-2295.2751196172253&y=477.80414672591724&scale=0.23831242873432154&rotation=0&layout=singlePageLayout
!!!ENC: Anna Maria Matuszewska
!!!EEV: 2024/09/12
*-	*-
